X:1
T:Now is the bridals - Weelkes
T:#
%%score { 1 | 2 } 3 4 5
L:1/8
Q:1/4=120
M:4/4
K:G
V:1 treble nm="Soprano I" snm="S"
V:2 treble 
V:3 treble nm="Alto" snm="A"
V:4 treble-8 nm="Tenor" snm="T"
V:5 bass nm="Bass" snm="B"
V:1
 d4 d2 d2 | e4"^Now is the bridals" d4 | d2 d2 c2 B2 | A4 z2 d2 | %4
w: Now is the|brid- als|of fair Chor- a-|lis, Where|
 BcdB c2"^Thomas Weelkes\n(1574-1623)" B2 |[M:4/4] A3 A G2 d2 | e2 (de) d2 B2 | A3 A A4 | %8
w: e~v- 'ry shep- herd tunes his|roun- de- lays, his|roun- de\- * lays, his|roun- de- lays,|
 z2 G2 E=FGE | ^F2 F2 G4- | G2 G2 A2 G2 | G2 F2 G2 G2 | B4 z2 G2 | B4 z2 B2 | B2 A2 B3 c | %15
w: where ev- 'ry shep- herd|tunes his roun\-|* de- lays, his|roun- de- lays, And|I, and|I, in|hon- our of my|
 d3 d d2 B2 | B2 A2 B3 c | d3 d d2 B2 | A3 A B2 A2 | A3 A A2 d2 | =f2 e2 d2 d2- | dA B2 A2 G2 | %22
w: Thor- a- lis, in|hon- our of my|Thor- a- lis, in|hon- our of my|Thor- a- lis, my|Thor- a- lis, Will|* not for- get to|
 F2 G2 A2 (Bc | d8) | d4 z4 | z4 z2 d2 | e2 f2 g4- | g2 =f2 e3 e | e2 (=f2 e4) | d8 | z2 A2 c2 d2 | %31
w: sing her gen- tle *||praise:|For,|ere the Sun|* his jour- ney|doth re\- *|new,|Sweet Love shall|
 e2 g4 =fe | d2 e4 dc | B2 d4 cB | A2 c4 BA | G2 B4 AG | F2 (G4 F2) | G4 z4 | z8 | z2 G2 B2 c2 | %40
w: act that now I|wish, that now I|wish, that now I|wish that now I|wish, that now I|wish were *|true,||sweet Love shall|
 d8 | z2 d4 cB | A2 B4 AG | F2 (G4 F2) | G8 | z2 E2 G2 A2 | B4 z4 | %47
w: act|that now I|wish, that now I|wish were *|true,|sweet Love shall|act|
[Q:1/4=117] z4[Q:1/4=114] z2[Q:1/4=111] d2- | %48
w: that|
[Q:1/4=109] d2[Q:1/4=107] c[Q:1/4=106]B[Q:1/4=104] A3[Q:1/4=102] A |[Q:1/4=102] !fermata!B8 |] %50
w: * now I wish were|true.|
V:2
 B4 B2 B2 | c4 B4 | B2 A2 A2 G2 | ^F2 A2 FGAF | G4 E2 G2- |[M:4/4] G2 F2 G4- | G4 z2 d2 | %7
w: Now is the|brid- als|of fair Chor- al-|is, Where ev- 'ry shep- herd|tunes his roun\-|* de- lays,|* where|
 ^cdec d4- | d2 d2 c3 B | A4 z2 d2 | e2 (de) d2 B2 | A3 A B4 | z2 G2 B4 | z2 G2 B4 | z4 z2 B2 | %15
w: ev- 'ry shep- herd tunes|* his roun- de-|lays, his|roun- de\- * lays, his|roun- de- lays,|And I,|and I|in|
 B2 A2 B3 c | d3 d d2 B2 | B2 A2 B3 c | d3 d d2 d2 | =f2 e2 d2 A2 | A3 A A4 | z2 d3 A B2 | %22
w: hon- our of my|Thor- al- is, in|hon- our of my|Thor- al- is, in|hon- our of my|Thor- al- is,|Will not for-|
 A2 G2 F2 G2 | A2 (B2 A4) | B4 z4 | z8 | z2 A2 B2 ^c2 | d3 d c2 B2 | ^c2 (d4 c2) | d8 | %30
w: get to sing her|gen- tle *|praise.||For, ere the|Sun his jour- ney|doth re\- *|new,|
 z2 =F2 A2 B2 | c2 e4 dc | B2 c2 G2 z2 | z2 B4 AG | F2 A4 G=F | E2 G2 d4- | d4 z4 | z2 G2 B2 c2 | %38
w: Sweet Love shall|act that now I|wish were true,|that now I|wish, that now I|wish were true,||sweet Love shall|
 d2 e4 dc | B2 B4 AG | F4 G4 | A2 z2 z4 | D4 D2 D2 | d8 | z2 g4 =fe | d2 e4 dc | B2 d4 cB | %47
w: act that now I|wish, that now I|wish were|true,|sweet Love shall|act|that now I|wish, that now I|wish, that now I|
 A2 B4 AG | F2 (G4 F2) | !fermata!G8 |] %50
w: wish, that now I|wish were *|true.|
V:3
 G4 G2 G2 | C4 G4 | G2 D2 =F2 G2 | D4 z2 D2 | G,A,B,G, A,2 (B,C) |[M:4/4] D3 D G,4- | G,4 z4 | %7
w: Now is the|brid- als|of fair Chor- al-|is, Where|e~v- 'ry shep- herd tunes his *|roun- de- lays,||
 z2 A2 FGAF | G2 B2 A2 G2 | d4 z2 D2 | G,A,B,G, D2 D2 | D3 D D2 D2 | G4 z2 G,2 | G4 z2 G2 | %14
w: where ev- 'ry shep- herd|tunes his roun- de-|lays, where|ev- 'ry shep- herd tunes his|roun- de- lays, And|I, and|I in|
 G2 F2 G2 G,2 | D3 D G,2 G2 | G2 F2 G2 G,2 | D3 D G,2 G2- | G2 F2 G2 =F2 | A2 E2 =F3 G | A2 E2 F4 | %21
w: hon- our of my|Thor- al- is, in|hon- our of my|Thor- al- is, Thor\-|* a- lis, in|hon- our of my|Thor- al- is,|
 z2 D3 F G2 | A2 D2 D2 D2- | D2 G4 F2 | G4 z4 | z2 G2 A2 B2 | c2 C2 D2 E2 | A6 ^G2 | A2 D2 A3 A | %29
w: Will not for-|get to sing her|* gen- tle|praise:|For, ere the|Sun, for, ere the|Sun his|jour- ney doth re-|
 D4 D4 | C8 | z8 | z2 C2 E2 F2 | G2 G,2 B,2 C2 | D2 E2 A,2 B,2 | C2 G,2 G,4 | D8 | D2 G4 =FE | %38
w: new, re-|new,||Sweet Love shall|act, sweet Love shall|act that now I|wish were true,|were|true, that now I|
 D2 (G,2 C4) | D4 z4 | z4 D4 | F4 G4 | A2 z4 D2- | D2 CB, A,2 A,2 | G,2 G,2 G,2 G,2 | G6 z2 | %46
w: wish were *|true,|sweet|Love shall|act that|* now I wish were|true, sweet Love shall|act|
 z2 B4 AG | F4 D4 | D6 D2 | !fermata!D8 |] %50
w: that now I|wish were|true, were|true.|
V:4
 z8 | z8 | z8 | z8 | z8 |[M:4/4][K:treble-8] z2 d2 BcdB | c2 B2 A2 B2 | e2 e2 d3 d | G4 z4 | %9
w: |||||Where ev- 'ry shep- herd|tunes his roun- de-|lays, his roun- de-|lays,|
 z2 d2 BcdB | c2 B2 A2 (BG) | A4 G4 | z2 G2 g4 | z2 G2 g4 | z4 z2 g2 | g2 f2 g2 G2 | d3 d G2 g2 | %17
w: where ev- 'ry shep- herd|tunes his roun- de\- *|* lays,|And I,|and I,|in|hon- our of my|Thor- al- is, in|
 g2 f2 g2 G2 | d3 d G2 d2 | A3 A D2 d2 | d2 ^c2 d4- | d4 z2 d2- | dA B2 A2 G2 | F2 G2 A3 A | %24
w: hon- our of my|Thor- al- is, in|hon- our of my|Thor- al- is,|* Will|* not for- get to|sing her gen- tle|
 G2 B2 c2 d2 | e6 d2 | c3 c B2 G2 | d4 z4 | z8 | z8 | z8 | z2 c2 e2 =f2 | g2 c4 BA | G4 z4 | %34
w: praise: For, ere the|Sun his|jour- ney doth re-|new,||||Sweet Love shall|act that now I|wish,|
 z2 A2 c2 d2 | e2 d4 cB | A2 (G2 A4) | G8 | z2 c2 e2 f2 | g8 | z2 d4 cB | A2 B4 AG | F2 G4 =FE | %43
w: sweet Love shall|act that now I|wish were *|true,|sweet Love shall|act|that now I|wish, that now I|wish, that now I|
 D4 D4 | d2 G2 B2 c2 | d2 c2 e2 f2 | g8 | z2 d4 cB | A2 (G2 A4) | !fermata!G8 |] %50
w: wish were|true, sweet Love shall|act, sweet Love shall|act|that now I|wish were *|true.|
V:5
 z8 | z8 | z8 | z8 | z8 |[M:4/4] z6 G,2 | E,=F,G,E, ^F,2 G,2 | A,3 A, D,2 D2 | B,CDB, C2 C2 | %9
w: |||||Where|ev- 'ry shep- herd tunes his|roun- de- lays, where|ev- 'ry shep- herd tunes his|
 D2 D,2 G,2 G,2 | E,=F,G,E, ^F,2 G,2 | D,3 D, G,,4 | z8 | z8 | z8 | z8 | z8 | z2 D,2 D4 | %18
w: roun- de- lays, where|ev- 'ry shep- herd tunes his|roun- de- lays,||||||and I,|
 z2 D,2 D2 D2 | D2 ^C2 D2 D,2 | A,3 A, D,2 D,2- | D,F, G,2 D,2 G,2 | D,2 G,2 D,4- | D,2 B,,2 D,4 | %24
w: and I, in|hon- our of my|Thor- al- is, Will|* not for- get to|sing her gen\-|* tle praise:|
 z2 G,2 A,2 B,2 | C6 B,2 | A,3 A, G,2 E,2 | D,4 z4 | z8 | z2 D,2 =F,2 G,2 | A,2 =F,4 E,D, | C,8 | %32
w: For, ere the|Sun his|jour- ney doth re-|new,||Sweet Love shall|act that now I|wish,|
 z8 | z8 | z8 | z2 G,,2 B,,2 C,2 | D,8 | z2 E,4 D,C, | B,,2 C,4 B,,A,, | G,,2 G,4 =F,E, | D,4 G,4 | %41
w: |||sweet Love shall|act|that now I|wish, that now I|wish, that now I|wish were|
 D,8 | z8 | z8 | z2 E,4 D,C, | B,,2 C,4 B,,A,, | G,,8 | D,8- | D,8 | !fermata!G,,8 |] %50
w: true,|||that now I|wish, that now I|wish|were||true.|

